X:1
T:[ID 3v-26a (= 3-87a)]
T:[ID 3v-26a (= 3-87a)]
T:Bezeichnung standardisiert: [Notat ohne Bezeichnung]
T:Urheber unbekannt Datum in der hier transkribierten schriftlichen Quelle: 1767
C:Urheber unbekannt
C:Datum in der hier transkribierten schriftlichen Quelle: 1767
L:1/8
M:none
K:G
V:1 bass 
V:1
 D,2 z E, | A,,2 B,,B,, | E, z z D, | ^C,D,A,A,, | D,F,A,A,, | D, D2 ^C | DD,F,D, | G,2 z D, | %8
 G,2 z G,, | D,A,,F,,D,, | D,2 z D, | G,D,B,,G,, | G,,2 z2 | C,2 z2 | G,,2 z2 | C,2 z2 | %16
 G,,2 D,D,, | G,,/G,,/G,,/G,,/ !//!G,,2 | !//!G,,4 | !//!G,,4 | G,,2 D,D,, | !//!G,,4 | %22
 G,,/G,,/G,,/G,,/ !//!G,,2 | !//!G,,4 | G,,2 D,D,, | G,,2 D,/C,/B,,/A,,/ | G,,4 :| %27

